X: 1
T: Biddy The Darling
M: 12/8
L: 1/8
R: slide
K: Dmaj
|:A | D2F A2d f2d A2F | G2B e2d cBA GFE |
D2F A2d f2d A2F |Ged cBc d3 d2 :|
|: c/B/ | A2c e2c A2d f2d | A2f g2e fed cBA |
d2A e2A f2A g2A | fed cBc d3 d2 :|
